images/icon-pin.svg

<svg height="14" viewBox="0 0 9 14" width="9" xmlns="http://www.w3.org/2000/svg"><path d="m7.62932143 1.34907143c-.87289286-.89945455-1.92621429-1.34907143-3.15996429-1.34907143s-2.28707143.44972727-3.15996428 1.34907143c-.87289286.89934415-1.30939286 1.98458441-1.30939286 3.25572078 0 .65361688.096 1.19022078.288 1.60992208l3.18621429 6.96127921c.08732142.1978182.22264285.3536883.40596428.4675.18332143.1139221.37971429.1709935.58928572.1709935.20946428 0 .40596428-.0570714.58928571-.1709935.18332143-.1138117.32142857-.2696818.41453571-.4675l3.17732143-6.96127921c.19210715-.4197013.28810715-.9563052.28810715-1.60992208.00010714-1.27113637-.43639286-2.35626624-1.30939286-3.25572078zm-1.58003572 4.88363636c-.43639285.44961689-.963.67448052-1.57992857.67448052s-1.14353571-.22486363-1.58003571-.67448052c-.4365-.44972727-.65475-.99229221-.65475-1.62791558 0-.63551299.21825-1.17818831.65475-1.6278052.4365-.44972727.96321428-.67459091 1.58003571-.67459091.61692857 0 1.14353572.22486364 1.57992857.67459091.4365.44961689.65475.99229221.65475 1.6278052 0 .63551298-.21825 1.17807792-.65475 1.62791558z" fill="#1bb24b" fill-rule="evenodd"/></svg>

<?xml version="1.0" encoding="UTF-8" standalone="no"?>
<svg width="9px" height="14px" viewBox="0 0 9 14" version="1.1" xmlns="http://www.w3.org/2000/svg" xmlns:xlink="http://www.w3.org/1999/xlink">
    <!-- Generator: Sketch 3.6.1 (26313) - http://www.bohemiancoding.com/sketch -->
    <title>icon-pin</title>
    <desc>Created with Sketch.</desc>
    <defs></defs>
    <g id="Page-1" stroke="none" stroke-width="1" fill="none" fill-rule="evenodd">
        <path d="M7.62932143,1.34907143 C6.75642857,0.449616883 5.70310714,0 4.46935714,0 C3.23560714,0 2.18228571,0.449727273 1.30939286,1.34907143 C0.4365,2.24841558 0,3.33365584 0,4.60479221 C0,5.25840909 0.096,5.79501299 0.288,6.21471429 L3.47421429,13.1759935 C3.56153571,13.3738117 3.69685714,13.5296818 3.88017857,13.6434935 C4.0635,13.7574156 4.25989286,13.814487 4.46946429,13.814487 C4.67892857,13.814487 4.87542857,13.7574156 5.05875,13.6434935 C5.24207143,13.5296818 5.38017857,13.3738117 5.47328571,13.1759935 L8.65060714,6.21471429 C8.84271429,5.79501299 8.93871429,5.25840909 8.93871429,4.60479221 C8.93882143,3.33365584 8.50232143,2.24852597 7.62932143,1.34907143 L7.62932143,1.34907143 Z M6.04928571,6.23270779 C5.61289286,6.68232468 5.08628571,6.90718831 4.46935714,6.90718831 C3.85242857,6.90718831 3.32582143,6.68232468 2.88932143,6.23270779 C2.45282143,5.78298052 2.23457143,5.24041558 2.23457143,4.60479221 C2.23457143,3.96927922 2.45282143,3.4266039 2.88932143,2.97698701 C3.32582143,2.52725974 3.85253571,2.3023961 4.46935714,2.3023961 C5.08628571,2.3023961 5.61289286,2.52725974 6.04928571,2.97698701 C6.48578571,3.4266039 6.70403571,3.96927922 6.70403571,4.60479221 C6.70403571,5.24030519 6.48578571,5.78287013 6.04928571,6.23270779 L6.04928571,6.23270779 Z" id="icon-pin" fill="#1BB24B"></path>
    </g>
</svg>
